X: 22559
T: Lady Madelina Sinclair
R: strathspey
M: 4/4
K: Gmajor
|:e|d<GB>G B/c/d e2|d>G e/d/c/B/ A3 e|
d>GB>G B/c/d e2|d>GB>A G3:|
e/f/|g>de>d e/f/g f/g/a|g/f/e/d/ g>B e2 de/f/|
g>de>d (3efg (3fga|g/f/e/d/ e/f/g/d/ g2 de/f/|
g>ef>d e>cd>B|c<AB<g A3 G|
B/c/d e2 B/c/d g2|G<GB>A G3||

